!!!SOCIAL_FUNCTION: songs of affection
!!!PDT:	1929
!!!LING_GROUP: Caddoan
!!!LANG: Non-Tone
!!!REG: Oklahoma
!!!COM: Anon.
!!!OTL: Song of a Warrior's Wife
!!!ODT: <1920//
!!!MPN: Tsastawinahiigat [She led a phony into the ceremony, Effie Blain]
!!!MLC: Pawnee, Oklahoma, United States of America
!! Song was recorded either 1919 or 1920.
!!!AGN: monody
!!!AMT: irregular
!!!RWG: Transcribed pitches, durations, and meters are only approximate.
!! Drum not recorded
**kern
*ICvox
*Ifemale
*clefG2
*k[f#c#]
*MM72
*[A,B,C,B,D]
*>A
*M7/8
16a
=1
8.a
16a
16cc#~
16b
4..a
16a
*>B
=!|:2
8.e
16e
16f#
16e
4..d
16A
*M2/4
=3
8.A
16A
8.d
16d
*M7/8
=4
8.e
16e
16f#
16e
8E
16B
16A
16B
16A
16B
16A
*M3/4
=5
4.A
8A
4A
*M2/4
*>C
=6
4..A
16e
*>D
=7
4A
8r
==
*-
!!!HAO:    There is a deep pathos in the next song and its history.  A woman
!!!HAO: composed this song while her husband was on the warpath.  She died
!!!HAO: during his absence, but her friends had learned the song.  When her
!!!HAO: husband returned they sang the song and told him its story.  He learned
!!!HAO: the song.
!!!HTX: I wonder where he is sitting,
!!!HTX: That person who comes and sits in my tipi.
!!!CNT: Pawnee
!!!TXO: Pawnee
!!!OCY: United States
!!!OCL: Frances Densmore
!!!YOR: Frances Densmore, "Pawnee Music"
!!!YOR: Bulletin 93, page 96, No. 70
!!!PPR: Smithsonian Institution, Bureau of American Ethnology
!!!PPR: Government Printing Office
!!!PDT: 1926
!!!PPP: Washington, DC, United States of America
!!!YEC: Electronic Copyright 2000 David Huron
!!!YER: September 2000
!!!YEN: United States of America
!!!ENC: David Huron
!!!RDT: September 10, 2000
!!!EEV: Release 1.0
!!!AIN: vox
